resources/svg/swap.svg

<svg xmlns="http://www.w3.org/2000/svg" fill="none" viewBox="0 0 14 14"><path fill="currentColor" fill-rule="evenodd" d="M4.95726 1.93304C4.24332 1.93304 3.66456 2.5118 3.66456 3.22574V8.35699H4.67403C4.96391 8.35699 5.22784 8.52405 5.35189 8.78605C5.47594 9.04805 5.43789 9.35808 5.25418 9.58231C4.59105 10.3917 4.16967 10.8136 3.38721 11.4488C3.11176 11.6724 2.71731 11.6724 2.44186 11.4488C1.65939 10.8136 1.23802 10.3917 0.57489 9.58231C0.391174 9.35808 0.353128 9.04805 0.477177 8.78605C0.601225 8.52405 0.865154 8.35699 1.15504 8.35699H2.16456V3.22574C2.16456 1.68338 3.41489 0.433044 4.95726 0.433044C6.49962 0.433044 7.74995 1.68338 7.74995 3.22574L7.74992 10.7579C7.74992 11.4719 8.32868 12.0506 9.04262 12.0506C9.75656 12.0506 10.3353 11.4719 10.3353 10.7579V5.64191H9.32586C9.03598 5.64191 8.77205 5.47485 8.648 5.21285C8.52396 4.95085 8.562 4.64082 8.74572 4.41659C9.40884 3.60721 9.83022 3.18526 10.6127 2.55011C10.8881 2.32651 11.2826 2.32651 11.558 2.55011C12.3405 3.18526 12.7619 3.60721 13.425 4.41659C13.6087 4.64082 13.6468 4.95085 13.5227 5.21285C13.3987 5.47485 13.1347 5.64191 12.8449 5.64191H11.8353V10.7579C11.8353 12.3003 10.585 13.5506 9.04262 13.5506C7.50026 13.5506 6.24992 12.3003 6.24992 10.7579L6.24995 3.22574C6.24995 2.5118 5.67119 1.93304 4.95726 1.93304Z" clip-rule="evenodd"></path></svg>

<svg xmlns="http://www.w3.org/2000/svg" fill="none" viewBox="0 0 14 14"><path fill="currentColor" fill-rule="evenodd" d="M4.957 1.933c-.714 0-1.292.579-1.292 1.293v5.131h1.009a.75.75 0 0 1 .58 1.225c-.663.81-1.084 1.232-1.867 1.867a.75.75 0 0 1-.945 0c-.783-.635-1.204-1.057-1.867-1.867a.75.75 0 0 1 .58-1.225h1.01V3.226a2.793 2.793 0 0 1 5.585 0v7.532a1.293 1.293 0 1 0 2.585 0V5.642h-1.01a.75.75 0 0 1-.58-1.225c.664-.81 1.085-1.232 1.868-1.867a.75.75 0 0 1 .945 0c.783.635 1.204 1.057 1.867 1.867a.75.75 0 0 1-.58 1.225h-1.01v5.116a2.793 2.793 0 1 1-5.585 0V3.226c0-.714-.579-1.293-1.293-1.293Z" clip-rule="evenodd"/></svg>
